X: 43003
T: Willow Runnel, The
R: hornpipe
M: 4/4
K: Bminor
FA|:A2B2 c2dc|cBAc BAFA|A2B2 c2dc|cAFA A2FA:|
Bcde f2ed|cBAc BFA2|Bcde f2a^g|e2^ge f2fd|
Bcde f2ed|cBAc BFA2|Bcde f2a^g|fecA B4||

